Adwaita++/apps/16/icq.svg

<svg height="16" viewBox="0 0 16 16" width="16" xmlns="http://www.w3.org/2000/svg">
  <path d="m7.6651246 15.465612c-.4765231-.09302-.9931536-.493077-1.2929069-1.001164-.172599-.29256-.3763378-.890157-.4146926-1.216358-.014306-.121664-.031673-.221207-.038606-.221207-.0069 0-.1261278.07891-.2648899.175356-1.1824935.821888-2.460077.783008-3.1200335-.09495-.52032-.692195-.4201278-1.79051.2523298-2.766073l.1813147-.263039-.2804434-.04807c-1.90276472-.3261535-2.77245047-1.8838233-1.76136155-3.1547257.32184745-.40455 1.08827265-.800737 1.74708475-.903118l.2980176-.04631-.1972232-.289288c-.3900964-.572194-.5682297-1.099878-.5670002-1.679619.0017-.803872.4480703-1.441571 1.1636987-1.662515.316168-.09761.8511881-.105606 1.1916622-.0178.3154057.08134.8129634.316261 1.1153478.52661l.2436362.169483.046439-.275505c.1562663-.927041.6399253-1.6933031 1.2620352-1.99944008.7262637-.357392 1.4201802-.229242 2.0195898.37297108.4080758.409985.6572504.925312.7803559 1.613883l.05166.288956.184074-.133961c.277835-.202197.598768-.372595.92876-.493124.26461-.09665.353472-.108594.817652-.109929.503753-.0015.529585.0027.790116.126041.371203.175774.641009.439161.819348.799855.12984.262608.147254.335575.163327.684365.01272.275958-.0013.472591-.04751.67072-.07718.330278-.356493.92339-.559881 1.18889-.07913.103293-.143868.197895-.143868.210229 0 .01233.04276.02242.09501.02242.212584 0 .884988.205716 1.195872.365866.406567.209441.841577.625776 1.000919.957952.568813 1.1857941-.294829 2.4217781-1.921792 2.7503317l-.366989.07411.164125.23838c.926575 1.345786.752893 2.770431-.404099 3.314681-.219025.103028-.316655.123455-.660989.138305-.615123.02652-1.103955-.122979-1.724837-.527524-.278806-.18166-.341659-.208989-.341659-.148559 0 .188674-.2154623.898395-.3646428 1.201113-.1232097.250017-.2386331.409084-.4512796.621912-.4799024.480313-.9951694.655518-1.5876741.539854zm.7131183-.90059c.5644672-.28117.8906514-1.083145.8861876-2.178835-.0011-.275298-.016867-.716776-.034994-.981063s-.029252-.484767-.02472-.489955c.0045-.0052.2413453.25357.5262555.575018.284911.321448.662236.700608.838499.842577.589293.474638 1.205866.700593 1.671085.612403.507824-.09627.739793-.437329.703774-1.034747-.02116-.350956-.134365-.663714-.371437-1.026197-.158549-.24242-.773738-.882273-1.362464-1.4170873-.176264-.1601226-.287797-.2807427-.247852-.2680453.03995.012698.481606.034869.981469.04927.998857.028777 1.326842-.00868 1.825519-.2084599.757065-.3033007 1.089457-.9318533.775486-1.4664407-.197338-.3359975-.584473-.5853575-1.151355-.7416065-.223721-.06166-.415444-.07103-1.361449-.0665l-1.10106.0053.319891-.284796c1.286235-1.145124 1.698976-1.753189 1.701113-2.506139.001-.365996-.09884-.598977-.32788-.764824-.350536-.253823-.8473-.239828-1.42633.04018-.443265.214355-.844886.557175-1.4529778 1.240246-.2937089.329924-.5367248.596059-.5400342.591411-.0033-.0046.010865-.269734.031493-.589081.04753-.735518.016157-1.587738-.069999-1.902064-.1561791-.569754-.4375758-.983062-.7882231-1.157726-.3766089-.187595-.6985543-.120757-1.0362833.215139-.4997185.497006-.6688061 1.226141-.5923076 2.554135.021879.379801.034004.728898.026951.77577-.010404.06915-.090967-.0024-.4272108-.379596-.7896907-.885804-1.2694071-1.271521-1.8326678-1.47356-.3120313-.111925-.7796117-.120083-.9777742-.01706-.5597032.290987-.6644243.914358-.2831145 1.685287.2653752.536534.7307366 1.047719 1.6997353 1.867106l.1244021.105195-1.1210361-.0051c-.9781214-.0044-1.1542308.0043-1.3814253.06867-.9607152.272124-1.4468052.9128337-1.1581854 1.5265922.162943.3465041.6020616.6466363 1.1782157.8052961.3011928.082942 1.2479843.1150063 1.9629364.066478.2864289-.019442.5251651-.032646.5305243-.029343.0054.0033-.2506351.2358956-.568877.516873-.7593144.6704014-1.04276 1.0045534-1.2850857 1.5149804-.1625839.34246-.2363822.69494-.1984446.947822.1339791.893064 1.1222997 1.040206 2.1618533.321859.2797101-.193283.4723563-.383228 1.4195019-1.399599l.1679231-.180196-.030403.600652c-.062926 1.243028-.0049 1.79554.2445256 2.327682.1675019.357379.3845722.600917.6431025.721513.2622849.122348.474069.119625.7331486-.0094zm-.7728019-4.6685442c-.8644126-.1647718-1.5427146-.9966466-1.5427146-1.8919976 0-.7295089.4315565-1.4196799 1.0894922-1.7423809 1.6382669-.803529 3.3840074.953906 2.574305 2.5915525-.388836.786434-1.2486017 1.2091352-2.1210826 1.042826zm.7206725-.4141188c.556745-.090677 1.0799872-.6555984 1.1808187-1.2748773.157913-.9698564-.7675727-1.8819454-1.7364813-1.7113454-.6676547.117556-1.1492658.600812-1.2756227 1.279978-.0852651.4582935.0570434.8905478.4192104 1.2733264.230922.2440658.5353782.4082808.8403347.4532543.2106596.031067.2688386.028998.5717402-.020336z" fill="#444"/>
</svg>

<svg xmlns="http://www.w3.org/2000/svg" width="16" height="16" version="1.1" viewBox="0 0 16 16">
 <path fill="#444" d="M 7.6651246,15.465612 C 7.1886015,15.372592 6.671971,14.972535 6.3722177,14.464448 6.1996187,14.171888 5.9958799,13.574291 5.9575251,13.24809 c -0.014306,-0.121664 -0.031673,-0.221207 -0.038606,-0.221207 -0.0069,0 -0.1261278,0.07891 -0.2648899,0.175356 -1.1824935,0.821888 -2.460077,0.783008 -3.1200335,-0.09495 -0.52032,-0.692195 -0.4201278,-1.79051 0.2523298,-2.766073 L 2.9676402,10.078177 2.6871968,10.030107 C 0.78443208,9.7039535 -0.08525367,8.1462837 0.92583525,6.8753813 1.2476827,6.4708313 2.0141079,6.0746443 2.67292,5.9722633 L 2.9709376,5.9259533 2.7737144,5.6366653 C 2.383618,5.0644713 2.2054847,4.5367873 2.2067142,3.9570463 c 0.0017,-0.803872 0.4480703,-1.441571 1.1636987,-1.662515 0.316168,-0.09761 0.8511881,-0.105606 1.1916622,-0.0178 0.3154057,0.08134 0.8129634,0.316261 1.1153478,0.52661 l 0.2436362,0.169483 0.046439,-0.275505 c 0.1562663,-0.927041 0.6399253,-1.6933031 1.2620352,-1.99944008 0.7262637,-0.357392 1.4201802,-0.229242 2.0195898,0.37297108 0.4080758,0.409985 0.6572504,0.925312 0.7803559,1.613883 l 0.05166,0.288956 0.184074,-0.133961 c 0.277835,-0.202197 0.598768,-0.372595 0.92876,-0.493124 0.26461,-0.09665 0.353472,-0.108594 0.817652,-0.109929 0.503753,-0.0015 0.529585,0.0027 0.790116,0.126041 0.371203,0.175774 0.641009,0.439161 0.819348,0.799855 0.12984,0.262608 0.147254,0.335575 0.163327,0.684365 0.01272,0.275958 -0.0013,0.472591 -0.04751,0.67072 -0.07718,0.330278 -0.356493,0.92339 -0.559881,1.18889 -0.07913,0.103293 -0.143868,0.197895 -0.143868,0.210229 0,0.01233 0.04276,0.02242 0.09501,0.02242 0.212584,0 0.884988,0.205716 1.195872,0.365866 0.406567,0.209441 0.841577,0.625776 1.000919,0.957952 0.568813,1.1857941 -0.294829,2.4217781 -1.921792,2.7503317 l -0.366989,0.07411 0.164125,0.23838 c 0.926575,1.345786 0.752893,2.770431 -0.404099,3.314681 -0.219025,0.103028 -0.316655,0.123455 -0.660989,0.138305 -0.615123,0.02652 -1.103955,-0.122979 -1.724837,-0.527524 -0.278806,-0.18166 -0.341659,-0.208989 -0.341659,-0.148559 0,0.188674 -0.2154623,0.898395 -0.3646428,1.201113 -0.1232097,0.250017 -0.2386331,0.409084 -0.4512796,0.621912 -0.4799024,0.480313 -0.9951694,0.655518 -1.5876741,0.539854 z m 0.7131183,-0.90059 c 0.5644672,-0.28117 0.8906514,-1.083145 0.8861876,-2.178835 -0.0011,-0.275298 -0.016867,-0.716776 -0.034994,-0.981063 -0.018127,-0.264287 -0.029252,-0.484767 -0.02472,-0.489955 0.0045,-0.0052 0.2413453,0.25357 0.5262555,0.575018 0.284911,0.321448 0.662236,0.700608 0.838499,0.842577 0.589293,0.474638 1.205866,0.700593 1.671085,0.612403 0.507824,-0.09627 0.739793,-0.437329 0.703774,-1.034747 C 12.92317,11.559464 12.809965,11.246706 12.572893,10.884223 12.414344,10.641803 11.799155,10.00195 11.210429,9.4671357 11.034165,9.3070131 10.922632,9.186393 10.962577,9.1990904 c 0.03995,0.012698 0.481606,0.034869 0.981469,0.04927 0.998857,0.028777 1.326842,-0.00868 1.825519,-0.2084599 0.757065,-0.3033007 1.089457,-0.9318533 0.775486,-1.4664407 -0.197338,-0.3359975 -0.584473,-0.5853575 -1.151355,-0.7416065 -0.223721,-0.06166 -0.415444,-0.07103 -1.361449,-0.0665 l -1.10106,0.0053 0.319891,-0.284796 c 1.286235,-1.145124 1.698976,-1.753189 1.701113,-2.506139 0.001,-0.365996 -0.09884,-0.598977 -0.32788,-0.764824 -0.350536,-0.253823 -0.8473,-0.239828 -1.42633,0.04018 -0.443265,0.214355 -0.844886,0.557175 -1.4529778,1.240246 -0.2937089,0.329924 -0.5367248,0.596059 -0.5400342,0.591411 -0.0033,-0.0046 0.010865,-0.269734 0.031493,-0.589081 C 9.283992,3.7621323 9.252619,2.9099123 9.166463,2.5955863 9.0102839,2.0258323 8.7288872,1.6125243 8.3782399,1.4378603 8.001631,1.2502653 7.6796856,1.3171033 7.3419566,1.6529993 6.8422381,2.1500053 6.6731505,2.8791403 6.749649,4.2071343 6.771528,4.5869353 6.783653,4.9360323 6.7766,4.9829043 6.766196,5.0520543 6.685633,4.9805043 6.3493892,4.6033083 5.5596985,3.7175043 5.0799821,3.3317873 4.5167214,3.1297483 4.2046901,3.0178233 3.7371097,3.0096653 3.5389472,3.1126883 2.979244,3.4036753 2.8745229,4.0270463 3.2558327,4.7979753 c 0.2653752,0.536534 0.7307366,1.047719 1.6997353,1.867106 l 0.1244021,0.105195 -1.1210361,-0.0051 c -0.9781214,-0.0044 -1.1542308,0.0043 -1.3814253,0.06867 -0.9607152,0.272124 -1.4468052,0.9128337 -1.1581854,1.5265922 0.162943,0.3465041 0.6020616,0.6466363 1.1782157,0.8052961 0.3011928,0.082942 1.2479843,0.1150063 1.9629364,0.066478 0.2864289,-0.019442 0.5251651,-0.032646 0.5305243,-0.029343 0.0054,0.0033 -0.2506351,0.2358956 -0.568877,0.516873 -0.7593144,0.6704014 -1.04276,1.0045534 -1.2850857,1.5149804 -0.1625839,0.34246 -0.2363822,0.69494 -0.1984446,0.947822 0.1339791,0.893064 1.1222997,1.040206 2.1618533,0.321859 0.2797101,-0.193283 0.4723563,-0.383228 1.4195019,-1.399599 l 0.1679231,-0.180196 -0.030403,0.600652 c -0.062926,1.243028 -0.0049,1.79554 0.2445256,2.327682 0.1675019,0.357379 0.3845722,0.600917 0.6431025,0.721513 0.2622849,0.122348 0.474069,0.119625 0.7331486,-0.0094 z M 7.605441,9.8964778 C 6.7410284,9.731706 6.0627264,8.8998312 6.0627264,8.0044802 c 0,-0.7295089 0.4315565,-1.4196799 1.0894922,-1.7423809 1.6382669,-0.803529 3.3840074,0.953906 2.574305,2.5915525 -0.388836,0.786434 -1.2486017,1.2091352 -2.1210826,1.042826 z M 8.3261135,9.482359 C 8.8828585,9.391682 9.4061007,8.8267606 9.5069322,8.2074817 9.6648452,7.2376253 8.7393595,6.3255363 7.7704509,6.4961363 7.1027962,6.6136923 6.6211851,7.0969483 6.4948282,7.7761143 6.4095631,8.2344078 6.5518716,8.6666621 6.9140386,9.0494407 7.1449606,9.2935065 7.4494168,9.4577215 7.7543733,9.502695 7.9650329,9.533762 8.0232119,9.531693 8.3261135,9.482359 Z"/>
</svg>
